Sources/FrostedUI/Resources/Icons.xcassets/burger24.imageset/burger-24.svg

<svg width="24" height="24" viewBox="0 0 24 24" fill="none" xmlns="http://www.w3.org/2000/svg" data-fui-icon="true">
  <path
    d="M19.4745 15.9473C20.7311 15.9473 21.7499 16.966 21.7499 18.2227C21.7498 20.3521 20.0172 21.9297 17.9491 21.9297H6.05066C3.98261 21.9296 2.24993 20.352 2.24988 18.2227C2.24988 16.966 3.26868 15.9474 4.52527 15.9473H19.4745ZM4.52527 17.4473C4.09711 17.4474 3.74988 17.7945 3.74988 18.2227C3.74993 19.463 4.74908 20.4296 6.05066 20.4297H17.9491C19.2507 20.4297 20.2498 19.463 20.2499 18.2227C20.2499 17.7944 19.9027 17.4473 19.4745 17.4473H4.52527ZM15.9901 12.4014C17.0126 10.8676 19.2664 10.8677 20.2889 12.4014C20.4909 12.7041 20.8479 12.8765 21.203 12.8838C21.6169 12.8924 21.9457 13.2345 21.9374 13.6484C21.9286 14.0623 21.5857 14.3913 21.1718 14.3828C20.3903 14.3667 19.5487 13.9949 19.0409 13.2334C18.612 12.5903 17.667 12.5902 17.2382 13.2334C16.2155 14.7667 13.9619 14.7668 12.9393 13.2334C12.5105 12.5902 11.5654 12.5902 11.1366 13.2334C10.114 14.7667 7.86032 14.7668 6.83777 13.2334C6.40897 12.5902 5.46388 12.5903 5.03503 13.2334C4.50506 14.028 3.61427 14.3995 2.79675 14.3828C2.38303 14.3741 2.05424 14.0319 2.06238 13.6182C2.07083 13.2041 2.41394 12.8754 2.828 12.8838C3.19786 12.8912 3.57543 12.7184 3.78699 12.4014C4.80956 10.8677 7.06328 10.8676 8.08582 12.4014C8.51463 13.0441 9.45967 13.0441 9.88855 12.4014C10.9111 10.8676 13.1648 10.8676 14.1874 12.4014C14.6162 13.0442 15.5612 13.044 15.9901 12.4014ZM16.4237 2.10938C19.3653 2.10943 21.7499 4.49398 21.7499 7.43555C21.7499 8.04808 21.5074 8.65244 21.1307 9.10645C20.7537 9.56081 20.1765 9.93749 19.4745 9.9375H4.52527C3.82329 9.93744 3.24605 9.56081 2.86902 9.10645C2.4924 8.65245 2.24988 8.04805 2.24988 7.43555C2.24989 4.49403 4.63456 2.10951 7.57605 2.10938H16.4237ZM7.57605 3.60938C5.46299 3.60951 3.74989 5.32246 3.74988 7.43555C3.74988 7.66535 3.84898 7.93712 4.02429 8.14844C4.19921 8.35916 4.38493 8.43743 4.52527 8.4375H19.4745C19.6148 8.43749 19.8005 8.35918 19.9755 8.14844C20.1508 7.93711 20.2499 7.66538 20.2499 7.43555C20.2499 5.32241 18.5368 3.60943 16.4237 3.60938H7.57605Z"
    fill="currentColor"
  />
</svg>

<svg xmlns="http://www.w3.org/2000/svg" width="24" height="24" fill="none" data-fui-icon="true" viewBox="0 0 24 24"><path fill="currentColor" d="M19.475 15.947a2.275 2.275 0 0 1 2.275 2.276c0 2.13-1.733 3.707-3.8 3.707H6.05c-2.067 0-3.8-1.578-3.8-3.707a2.275 2.275 0 0 1 2.275-2.276zm-14.95 1.5a.776.776 0 0 0-.775.776c0 1.24 1 2.207 2.3 2.207h11.9c1.3 0 2.3-.967 2.3-2.207a.775.775 0 0 0-.776-.776zm11.465-5.046c1.023-1.533 3.276-1.533 4.299 0 .202.303.559.476.914.483a.75.75 0 1 1-.031 1.499c-.782-.016-1.623-.388-2.131-1.15a1.083 1.083 0 0 0-1.803 0c-1.023 1.534-3.276 1.534-4.299 0a1.083 1.083 0 0 0-1.802 0c-1.023 1.534-3.277 1.534-4.3 0a1.083 1.083 0 0 0-1.802 0c-.53.795-1.42 1.166-2.238 1.15a.75.75 0 0 1 .031-1.5c.37.008.747-.165.959-.482 1.023-1.533 3.276-1.533 4.299 0a1.084 1.084 0 0 0 1.803 0c1.022-1.533 3.276-1.533 4.298 0a1.084 1.084 0 0 0 1.803 0m.434-10.292a5.326 5.326 0 0 1 5.326 5.327c0 .612-.243 1.216-.62 1.67-.376.455-.953.831-1.655.832H4.525c-.702 0-1.279-.377-1.656-.832a2.67 2.67 0 0 1-.62-1.67 5.326 5.326 0 0 1 5.327-5.327zm-8.848 1.5A3.826 3.826 0 0 0 3.75 7.436c0 .23.099.501.274.712s.36.29.501.29h14.95c.14 0 .325-.079.5-.29.176-.21.275-.483.275-.712a3.826 3.826 0 0 0-3.826-3.827z"/></svg>
